X:1
T:St. Thomas
T:St. Thomas
T:Public Domain
Z:Public Domain
%%score ( 1 2 ) ( 3 4 )
L:1/8
Q:1/4=200
M:4/2
K:C
V:1 treble nm="St.Thomas"
V:2 treble 
V:3 bass nm="Tempo Track"
V:4 bass 
V:1
 [G,C]4 [B,D]4 [CE]4 C4 | [G,D]4 [CE]4 [B,F]4 [CE]4 | [CA]4 [CG]4 F4 [CE]4 | [CD]4 [B,D]4 C8 | %4
 [Ec]4 [DB]4 [Cc]4 [CG]4 | [CA]4 [CG]4 [B,F]4 [CE]4 | A4 B2- B2 [Cc]4 [DB]4 | A4 A2- A2 [B,G]8 | %8
 [CG]4 [DG]4 [CE]4 C4 | [B,D]4 [CE]4 F4 [CE]4 | G4 E2 A4 G2 x8 | [CE]4 [B,D]4 C8 |] %12
V:2
 x12 C4 | x16 | x8 (C2 B,2) x4 | x8 C8 | x16 | x16 | E6 D2 x8 | D6 C2 x8 | x12 C4 | %9
 x8 (C2 B,2) x4 | C6 E2- B,2 A,2 B,2 C4 F2 | x8 C8 |] %12
V:3
 [C,E,]4 [G,,G,]4 [C,G,]4 [E,G,]4 | [B,,G,]4 [C,G,]4 [D,G,]4 [C,G,]4 | %2
 F,4 [E,G,]4 (A,2 F,2) [C,G,]4 | G,6 F,2 [C,E,]8 | [C,G,]4 [D,F,]4 E,4 [C,E,]4 | %5
 F,4 [E,G,]4 [D,G,]4 [C,G,]4 | [A,,C]4 [^G,,B,]4 [A,,A,]4 =G,4 | [D,G,]4 [D,,^F,]4 [G,,G,]8 | %8
 [E,G,]4 [B,,G,]4 [C,G,]4 [E,G,]4 | [F,G,]4 [E,G,]4 [D,F,]4 [C,G,]4 | %10
 [E,G,]4 [C,G,]4 F,4 [E,G,]2 [F,A,]2 x4 | G,6 F,2 [C,E,]8 |] %12
V:4
 x16 | x16 | F,4 x4 D,4 x4 | G,,4 G,,2- G,,2 x8 | x8 E,4 x4 | F,4 x12 | x12 (B,,2 C,2) | x16 | %8
 x16 | x16 | x8 F,4 x8 | G,4 G,,2- G,,2 x8 |] %12

